X: 3002
Q:"Reel."
M: C
L: 1/8
K: D
vA |\
|:\
afdf a2(gf) | gfed cefg |\
[1 afdf afdf | gece defg |\
[2 afge fdec | Agfe d3 |]


